static/img/kroki/e59934994bd186dc486d0da33267d432.svg

<?xml version="1.0" encoding="us-ascii" standalone="no"?><svg xmlns="http://www.w3.org/2000/svg" xmlns:xlink="http://www.w3.org/1999/xlink" contentStyleType="text/css" height="1088px" preserveAspectRatio="none" style="width:481px;height:1088px;" version="1.1" viewBox="0 0 481 1088" width="481px" zoomAndPan="magnify"><defs/><g><!--class aws_cloudfront_end_point--><g id="elem_aws_cloudfront_end_point"><rect codeLine="23" fill="#3D176E" height="100.3828" id="aws_cloudfront_end_point" rx="2.5" ry="2.5" style="stroke:#000D19;stroke-width:0.5;" width="467" x="7" y="820.52"/><ellipse cx="121.75" cy="840.4145" fill="#ADD1B2" rx="11" ry="11" style="stroke:#181818;stroke-width:1.0;"/><path d="M124.7188,846.0552 Q124.1406,846.352 123.5,846.4927 Q122.8594,846.6489 122.1563,846.6489 Q119.6563,846.6489 118.3281,845.0083 Q117.0156,843.352 117.0156,840.227 Q117.0156,837.102 118.3281,835.4458 Q119.6563,833.7895 122.1563,833.7895 Q122.8594,833.7895 123.5,833.9458 Q124.1563,834.102 124.7188,834.3989 L124.7188,837.1177 Q124.0938,836.5395 123.5,836.2739 Q122.9063,835.9927 122.2813,835.9927 Q120.9375,835.9927 120.25,837.0708 Q119.5625,838.1333 119.5625,840.227 Q119.5625,842.3208 120.25,843.3989 Q120.9375,844.4614 122.2813,844.4614 Q122.9063,844.4614 123.5,844.1958 Q124.0938,843.9145 124.7188,843.3364 L124.7188,846.0552 Z " fill="#000000"/><text fill="#D9B8FF" font-family="Helvetica" font-size="17" lengthAdjust="spacing" textLength="219" x="147.25" y="846.2998">aws_cloudfront_end_point</text><line style="stroke:#000D19;stroke-width:0.5;" x1="8" x2="473" y1="860.3091" y2="860.3091"/><text fill="#D9B8FF" font-family="sans-serif" font-size="14" font-weight="bold" lengthAdjust="spacing" textLength="173" x="18" y="882.3042">kinesis_stream_config</text><text fill="#D9B8FF" font-family="sans-serif" font-size="14" lengthAdjust="spacing" textLength="272" x="191" y="882.3042">: aws_cloudfront_kinesis_stream_config</text><text fill="#D9B8FF" font-family="sans-serif" font-size="14" font-weight="bold" lengthAdjust="spacing" textLength="97" x="18" y="908.6011">stream_type</text><text fill="#D9B8FF" font-family="sans-serif" font-size="14" lengthAdjust="spacing" textLength="48" x="115" y="908.6011">: string</text></g><!--class aws_cloudfront_kinesis_stream_config--><g id="elem_aws_cloudfront_kinesis_stream_config"><rect codeLine="27" fill="#3D176E" height="100.3828" id="aws_cloudfront_kinesis_stream_config" rx="2.5" ry="2.5" style="stroke:#000D19;stroke-width:0.5;" width="362" x="59.5" y="980.91"/><ellipse cx="74.5" cy="1000.8045" fill="#ADD1B2" rx="11" ry="11" style="stroke:#181818;stroke-width:1.0;"/><path d="M77.4688,1006.4452 Q76.8906,1006.742 76.25,1006.8827 Q75.6094,1007.0389 74.9063,1007.0389 Q72.4063,1007.0389 71.0781,1005.3983 Q69.7656,1003.742 69.7656,1000.617 Q69.7656,997.492 71.0781,995.8358 Q72.4063,994.1795 74.9063,994.1795 Q75.6094,994.1795 76.25,994.3358 Q76.9063,994.492 77.4688,994.7889 L77.4688,997.5077 Q76.8438,996.9295 76.25,996.6639 Q75.6563,996.3827 75.0313,996.3827 Q73.6875,996.3827 73,997.4608 Q72.3125,998.5233 72.3125,1000.617 Q72.3125,1002.7108 73,1003.7889 Q73.6875,1004.8514 75.0313,1004.8514 Q75.6563,1004.8514 76.25,1004.5858 Q76.8438,1004.3045 77.4688,1003.7264 L77.4688,1006.4452 Z " fill="#000000"/><text fill="#D9B8FF" font-family="Helvetica" font-size="17" lengthAdjust="spacing" textLength="320" x="93.5" y="1006.6898">aws_cloudfront_kinesis_stream_config</text><line style="stroke:#000D19;stroke-width:0.5;" x1="60.5" x2="420.5" y1="1020.6991" y2="1020.6991"/><text fill="#D9B8FF" font-family="sans-serif" font-size="14" font-weight="bold" lengthAdjust="spacing" textLength="64" x="70.5" y="1042.6942">role_arn</text><text fill="#D9B8FF" font-family="sans-serif" font-size="14" lengthAdjust="spacing" textLength="48" x="134.5" y="1042.6942">: string</text><text fill="#D9B8FF" font-family="sans-serif" font-size="14" font-weight="bold" lengthAdjust="spacing" textLength="88" x="70.5" y="1068.9911">stream_arn</text><text fill="#D9B8FF" font-family="sans-serif" font-size="14" lengthAdjust="spacing" textLength="48" x="158.5" y="1068.9911">: string</text></g><!--class aws_cloudfront_realtime_log_config--><g id="elem_aws_cloudfront_realtime_log_config"><rect codeLine="31" fill="#3D176E" height="126.6797" id="aws_cloudfront_realtime_log_config" rx="2.5" ry="2.5" style="stroke:#000D19;stroke-width:0.5;" width="409" x="36" y="633.84"/><ellipse cx="81.25" cy="653.7345" fill="#ADD1B2" rx="11" ry="11" style="stroke:#181818;stroke-width:1.0;"/><path d="M84.2188,659.3752 Q83.6406,659.672 83,659.8127 Q82.3594,659.9689 81.6563,659.9689 Q79.1563,659.9689 77.8281,658.3283 Q76.5156,656.672 76.5156,653.547 Q76.5156,650.422 77.8281,648.7658 Q79.1563,647.1095 81.6563,647.1095 Q82.3594,647.1095 83,647.2658 Q83.6563,647.422 84.2188,647.7189 L84.2188,650.4377 Q83.5938,649.8595 83,649.5939 Q82.4063,649.3127 81.7813,649.3127 Q80.4375,649.3127 79.75,650.3908 Q79.0625,651.4533 79.0625,653.547 Q79.0625,655.6408 79.75,656.7189 Q80.4375,657.7814 81.7813,657.7814 Q82.4063,657.7814 83,657.5158 Q83.5938,657.2345 84.2188,656.6564 L84.2188,659.3752 Z " fill="#000000"/><text fill="#D9B8FF" font-family="Helvetica" font-size="17" lengthAdjust="spacing" textLength="300" x="106.75" y="659.6198">aws_cloudfront_realtime_log_config</text><line style="stroke:#000D19;stroke-width:0.5;" x1="37" x2="444" y1="673.6291" y2="673.6291"/><text fill="#D9B8FF" font-family="sans-serif" font-size="14" font-weight="bold" lengthAdjust="spacing" textLength="188" x="47" y="695.6242">realtime_log_end_points</text><text fill="#D9B8FF" font-family="sans-serif" font-size="14" lengthAdjust="spacing" textLength="199" x="235" y="695.6242">: aws_cloudfront_end_point[]</text><text fill="#D9B8FF" font-family="sans-serif" font-size="14" font-weight="bold" lengthAdjust="spacing" textLength="145" x="47" y="721.9211">realtime_log_fields</text><text fill="#D9B8FF" font-family="sans-serif" font-size="14" lengthAdjust="spacing" textLength="58" x="192" y="721.9211">: string[]</text><text fill="#D9B8FF" font-family="sans-serif" font-size="14" font-weight="bold" lengthAdjust="spacing" textLength="211" x="47" y="748.2179">realtime_log_sampling_rate</text><text fill="#D9B8FF" font-family="sans-serif" font-size="14" lengthAdjust="spacing" textLength="44" x="258" y="748.2179">: int64</text></g><!--class aws_resource--><g id="elem_aws_resource"><rect codeLine="36" fill="#3D176E" height="74.0859" id="aws_resource" rx="2.5" ry="2.5" style="stroke:#000D19;stroke-width:0.5;" width="155" x="163" y="438.76"/><ellipse cx="178" cy="458.6545" fill="#ADD1B2" rx="11" ry="11" style="stroke:#181818;stroke-width:1.0;"/><path d="M180.9688,464.2952 Q180.3906,464.592 179.75,464.7327 Q179.1094,464.8889 178.4063,464.8889 Q175.9063,464.8889 174.5781,463.2483 Q173.2656,461.592 173.2656,458.467 Q173.2656,455.342 174.5781,453.6858 Q175.9063,452.0295 178.4063,452.0295 Q179.1094,452.0295 179.75,452.1858 Q180.4063,452.342 180.9688,452.6389 L180.9688,455.3577 Q180.3438,454.7795 179.75,454.5139 Q179.1563,454.2327 178.5313,454.2327 Q177.1875,454.2327 176.5,455.3108 Q175.8125,456.3733 175.8125,458.467 Q175.8125,460.5608 176.5,461.6389 Q177.1875,462.7014 178.5313,462.7014 Q179.1563,462.7014 179.75,462.4358 Q180.3438,462.1545 180.9688,461.5764 L180.9688,464.2952 Z " fill="#000000"/><text fill="#D9B8FF" font-family="Helvetica" font-size="17" lengthAdjust="spacing" textLength="113" x="197" y="464.5398">aws_resource</text><line style="stroke:#000D19;stroke-width:0.5;" x1="164" x2="317" y1="478.5491" y2="478.5491"/><text fill="#D9B8FF" font-family="sans-serif" font-size="14" font-weight="bold" lengthAdjust="spacing" textLength="26" x="174" y="500.5442">arn</text><text fill="#D9B8FF" font-family="sans-serif" font-size="14" lengthAdjust="spacing" textLength="48" x="200" y="500.5442">: string</text></g><!--class resource--><g id="elem_resource"><rect codeLine="39" fill="#3D176E" height="310.7578" id="resource" rx="2.5" ry="2.5" style="stroke:#000D19;stroke-width:0.5;" width="227" x="127" y="7"/><ellipse cx="195.75" cy="26.8945" fill="#ADD1B2" rx="11" ry="11" style="stroke:#181818;stroke-width:1.0;"/><path d="M198.7188,32.5352 Q198.1406,32.832 197.5,32.9727 Q196.8594,33.1289 196.1563,33.1289 Q193.6563,33.1289 192.3281,31.4883 Q191.0156,29.832 191.0156,26.707 Q191.0156,23.582 192.3281,21.9258 Q193.6563,20.2695 196.1563,20.2695 Q196.8594,20.2695 197.5,20.4258 Q198.1563,20.582 198.7188,20.8789 L198.7188,23.5977 Q198.0938,23.0195 197.5,22.7539 Q196.9063,22.4727 196.2813,22.4727 Q194.9375,22.4727 194.25,23.5508 Q193.5625,24.6133 193.5625,26.707 Q193.5625,28.8008 194.25,29.8789 Q194.9375,30.9414 196.2813,30.9414 Q196.9063,30.9414 197.5,30.6758 Q198.0938,30.3945 198.7188,29.8164 L198.7188,32.5352 Z " fill="#000000"/><text fill="#D9B8FF" font-family="Helvetica" font-size="17" lengthAdjust="spacing" textLength="71" x="221.25" y="32.7798">resource</text><line style="stroke:#000D19;stroke-width:0.5;" x1="128" x2="353" y1="46.7891" y2="46.7891"/><text fill="#D9B8FF" font-family="sans-serif" font-size="14" font-weight="bold" lengthAdjust="spacing" textLength="29" x="138" y="68.7842">age</text><text fill="#D9B8FF" font-family="sans-serif" font-size="14" lengthAdjust="spacing" textLength="66" x="167" y="68.7842">: duration</text><text fill="#D9B8FF" font-family="sans-serif" font-size="14" font-weight="bold" lengthAdjust="spacing" textLength="43" x="138" y="95.0811">atime</text><text fill="#D9B8FF" font-family="sans-serif" font-size="14" lengthAdjust="spacing" textLength="70" x="181" y="95.0811">: datetime</text><text fill="#D9B8FF" font-family="sans-serif" font-size="14" font-weight="bold" lengthAdjust="spacing" textLength="43" x="138" y="121.3779">ctime</text><text fill="#D9B8FF" font-family="sans-serif" font-size="14" lengthAdjust="spacing" textLength="70" x="181" y="121.3779">: datetime</text><text fill="#D9B8FF" font-family="sans-serif" font-size="14" font-weight="bold" lengthAdjust="spacing" textLength="14" x="138" y="147.6748">id</text><text fill="#D9B8FF" font-family="sans-serif" font-size="14" lengthAdjust="spacing" textLength="48" x="152" y="147.6748">: string</text><text fill="#D9B8FF" font-family="sans-serif" font-size="14" font-weight="bold" lengthAdjust="spacing" textLength="33" x="138" y="173.9717">kind</text><text fill="#D9B8FF" font-family="sans-serif" font-size="14" lengthAdjust="spacing" textLength="48" x="171" y="173.9717">: string</text><text fill="#D9B8FF" font-family="sans-serif" font-size="14" font-weight="bold" lengthAdjust="spacing" textLength="90" x="138" y="200.2686">last_access</text><text fill="#D9B8FF" font-family="sans-serif" font-size="14" lengthAdjust="spacing" textLength="66" x="228" y="200.2686">: duration</text><text fill="#D9B8FF" font-family="sans-serif" font-size="14" font-weight="bold" lengthAdjust="spacing" textLength="90" x="138" y="226.5654">last_update</text><text fill="#D9B8FF" font-family="sans-serif" font-size="14" lengthAdjust="spacing" textLength="66" x="228" y="226.5654">: duration</text><text fill="#D9B8FF" font-family="sans-serif" font-size="14" font-weight="bold" lengthAdjust="spacing" textLength="48" x="138" y="252.8623">mtime</text><text fill="#D9B8FF" font-family="sans-serif" font-size="14" lengthAdjust="spacing" textLength="70" x="186" y="252.8623">: datetime</text><text fill="#D9B8FF" font-family="sans-serif" font-size="14" font-weight="bold" lengthAdjust="spacing" textLength="43" x="138" y="279.1592">name</text><text fill="#D9B8FF" font-family="sans-serif" font-size="14" lengthAdjust="spacing" textLength="48" x="181" y="279.1592">: string</text><text fill="#D9B8FF" font-family="sans-serif" font-size="14" font-weight="bold" lengthAdjust="spacing" textLength="34" x="138" y="305.4561">tags</text><text fill="#D9B8FF" font-family="sans-serif" font-size="14" lengthAdjust="spacing" textLength="171" x="172" y="305.4561">: dictionary[string, string]</text></g><!--link aws_cloudfront_end_point to aws_cloudfront_kinesis_stream_config--><g id="link_aws_cloudfront_end_point_aws_cloudfront_kinesis_stream_config"><path codeLine="51" d="M240.5,921.39 C240.5,940.26 240.5,955.74 240.5,974.6 " fill="none" id="aws_cloudfront_end_point-to-aws_cloudfront_kinesis_stream_config" style="stroke:#FFAF37;stroke-width:2.0;"/><polygon fill="#FFAF37" points="240.5,980.6,244.5,971.6,240.5,975.6,236.5,971.6,240.5,980.6" style="stroke:#FFAF37;stroke-width:2.0;"/></g><!--link aws_cloudfront_realtime_log_config to aws_cloudfront_end_point--><g id="link_aws_cloudfront_realtime_log_config_aws_cloudfront_end_point"><path codeLine="52" d="M240.5,760.6 C240.5,780.23 240.5,795.64 240.5,814.25 " fill="none" id="aws_cloudfront_realtime_log_config-to-aws_cloudfront_end_point" style="stroke:#FFAF37;stroke-width:2.0;"/><polygon fill="#FFAF37" points="240.5,820.25,244.5,811.25,240.5,815.25,236.5,811.25,240.5,820.25" style="stroke:#FFAF37;stroke-width:2.0;"/></g><!--reverse link aws_resource to aws_cloudfront_realtime_log_config--><g id="link_aws_resource_aws_cloudfront_realtime_log_config"><path codeLine="53" d="M240.5,531.03 C240.5,563.77 240.5,594.66 240.5,633.7 " fill="none" id="aws_resource-backto-aws_cloudfront_realtime_log_config" style="stroke:#FFAF37;stroke-width:2.0;"/><polygon fill="none" points="240.5,513.03,234.5,531.03,246.5,531.03,240.5,513.03" style="stroke:#FFAF37;stroke-width:2.0;"/></g><!--reverse link resource to aws_resource--><g id="link_resource_aws_resource"><path codeLine="54" d="M240.5,336.18 C240.5,381.21 240.5,408.35 240.5,438.51 " fill="none" id="resource-backto-aws_resource" style="stroke:#FFAF37;stroke-width:2.0;"/><polygon fill="none" points="240.5,318.18,234.5,336.18,246.5,336.18,240.5,318.18" style="stroke:#FFAF37;stroke-width:2.0;"/></g><!--SRC=[ZLHRQzim57xthn3qBSoGj5lJZ57e0cDxAMFTModcH3fsH7GnH_92TldlavqqbMsbpPlzdUzy5rbuBGKorBNVCOrwXUGojv6c1WBDxeZiTccL9NPHbb1UpOV3BzRuDmdte95zHVKBlUGmPFnSIxunw1oxZ4QVWMygieqHUtbFO5mOeV4HQwd0kJllIQuQZr4OiLZTbEMGEHIzk1Ap-JMEQ9O4qe4odKx5R36al6drQkyZuq7-HZQB3-tUUXp575bqh5TJjemevAZey_nankyWX3GL-n1XF_QPo23ry8Sr2BjjsIKe5ziuZuJMxsfSZbhXuaQKyoJvsobonjkZOx1r1LUs4IM53WKQKTHM6i_-P9D9q4CdNU4y8UY2MrFAQZBvEDnAyiB-uRtDqMw5rz0i-vUsJefqCSWgB81Cf77KxiCdf0DJUQcnKBRg2SVuiRfBD3mE7v-6UwL49TnBY373WQvLc1G4lZk8e7FzlXUMqDc6E7QnqftwbAeJ4asGbDQqI6lNOS6aVGuOJs1Iz8und7eV25w-0Cx3RsJWq4sQMXnAH1ETy36WiIVieTehIjwk0UqUzxDt1yvJg7hoEkRvxNctxenFdz0w6cMzh_7fRvxdPzocBB7n36N_0G00]--></g></svg>

<svg xmlns="http://www.w3.org/2000/svg" width="481" height="1088" viewBox="0 0 481 1088"><rect width="467" height="100.383" x="7" y="820.52" fill="#3D176E" rx="2.5" ry="2.5" style="stroke:#000d19;stroke-width:.5"/><circle cx="121.75" cy="840.414" r="11" fill="#ADD1B2" style="stroke:#181818;stroke-width:1"/><path d="M124.719 846.055q-.578.297-1.219.438-.64.156-1.344.156-2.5 0-3.828-1.64-1.312-1.657-1.312-4.782t1.312-4.781q1.328-1.657 3.828-1.657.703 0 1.344.157.656.156 1.219.453v2.719q-.625-.579-1.219-.844-.594-.281-1.219-.281-1.344 0-2.031 1.078-.687 1.062-.687 3.156t.687 3.172q.688 1.062 2.031 1.062.625 0 1.219-.265.594-.282 1.219-.86z"/><text x="147.25" y="846.3" fill="#D9B8FF" font-family="Helvetica" font-size="17" textLength="219">aws_cloudfront_end_point</text><path d="M8 860.309h465" style="stroke:#000d19;stroke-width:.5"/><text x="18" y="882.304" fill="#D9B8FF" font-family="sans-serif" font-size="14" font-weight="bold" textLength="173">kinesis_stream_config</text><text x="191" y="882.304" fill="#D9B8FF" font-family="sans-serif" font-size="14" textLength="272">: aws_cloudfront_kinesis_stream_config</text><text x="18" y="908.601" fill="#D9B8FF" font-family="sans-serif" font-size="14" font-weight="bold" textLength="97">stream_type</text><text x="115" y="908.601" fill="#D9B8FF" font-family="sans-serif" font-size="14" textLength="48">: string</text><rect width="362" height="100.383" x="59.5" y="980.91" fill="#3D176E" rx="2.5" ry="2.5" style="stroke:#000d19;stroke-width:.5"/><circle cx="74.5" cy="1000.804" r="11" fill="#ADD1B2" style="stroke:#181818;stroke-width:1"/><path d="M77.469 1006.445q-.578.297-1.219.438-.64.156-1.344.156-2.5 0-3.828-1.64-1.312-1.657-1.312-4.782t1.312-4.781q1.328-1.657 3.828-1.657.703 0 1.344.157.656.156 1.219.453v2.719q-.625-.579-1.219-.844-.594-.281-1.219-.281-1.344 0-2.031 1.078-.687 1.062-.687 3.156t.687 3.172q.688 1.062 2.031 1.062.625 0 1.219-.265.594-.282 1.219-.86z"/><text x="93.5" y="1006.69" fill="#D9B8FF" font-family="Helvetica" font-size="17" textLength="320">aws_cloudfront_kinesis_stream_config</text><path d="M60.5 1020.699h360" style="stroke:#000d19;stroke-width:.5"/><text x="70.5" y="1042.694" fill="#D9B8FF" font-family="sans-serif" font-size="14" font-weight="bold" textLength="64">role_arn</text><text x="134.5" y="1042.694" fill="#D9B8FF" font-family="sans-serif" font-size="14" textLength="48">: string</text><text x="70.5" y="1068.991" fill="#D9B8FF" font-family="sans-serif" font-size="14" font-weight="bold" textLength="88">stream_arn</text><text x="158.5" y="1068.991" fill="#D9B8FF" font-family="sans-serif" font-size="14" textLength="48">: string</text><rect width="409" height="126.68" x="36" y="633.84" fill="#3D176E" rx="2.5" ry="2.5" style="stroke:#000d19;stroke-width:.5"/><circle cx="81.25" cy="653.735" r="11" fill="#ADD1B2" style="stroke:#181818;stroke-width:1"/><path d="M84.219 659.375q-.578.297-1.219.438-.64.156-1.344.156-2.5 0-3.828-1.64-1.312-1.657-1.312-4.782t1.312-4.781q1.328-1.656 3.828-1.656.703 0 1.344.156.656.156 1.219.453v2.719q-.625-.578-1.219-.844-.594-.281-1.219-.281-1.344 0-2.031 1.078-.687 1.062-.687 3.156t.687 3.172q.688 1.062 2.031 1.062.625 0 1.219-.265.594-.281 1.219-.86z"/><text x="106.75" y="659.62" fill="#D9B8FF" font-family="Helvetica" font-size="17" textLength="300">aws_cloudfront_realtime_log_config</text><path d="M37 673.629h407" style="stroke:#000d19;stroke-width:.5"/><text x="47" y="695.624" fill="#D9B8FF" font-family="sans-serif" font-size="14" font-weight="bold" textLength="188">realtime_log_end_points</text><text x="235" y="695.624" fill="#D9B8FF" font-family="sans-serif" font-size="14" textLength="199">: aws_cloudfront_end_point[]</text><text x="47" y="721.921" fill="#D9B8FF" font-family="sans-serif" font-size="14" font-weight="bold" textLength="145">realtime_log_fields</text><text x="192" y="721.921" fill="#D9B8FF" font-family="sans-serif" font-size="14" textLength="58">: string[]</text><text x="47" y="748.218" fill="#D9B8FF" font-family="sans-serif" font-size="14" font-weight="bold" textLength="211">realtime_log_sampling_rate</text><text x="258" y="748.218" fill="#D9B8FF" font-family="sans-serif" font-size="14" textLength="44">: int64</text><rect width="155" height="74.086" x="163" y="438.76" fill="#3D176E" rx="2.5" ry="2.5" style="stroke:#000d19;stroke-width:.5"/><circle cx="178" cy="458.654" r="11" fill="#ADD1B2" style="stroke:#181818;stroke-width:1"/><path d="M180.969 464.295q-.578.297-1.219.438-.64.156-1.344.156-2.5 0-3.828-1.64-1.312-1.657-1.312-4.782t1.312-4.781q1.328-1.656 3.828-1.656.703 0 1.344.156.656.156 1.219.453v2.719q-.625-.579-1.219-.844-.594-.281-1.219-.281-1.344 0-2.031 1.078-.687 1.062-.687 3.156t.687 3.172q.688 1.062 2.031 1.062.625 0 1.219-.265.594-.281 1.219-.86z"/><text x="197" y="464.54" fill="#D9B8FF" font-family="Helvetica" font-size="17" textLength="113">aws_resource</text><path d="M164 478.549h153" style="stroke:#000d19;stroke-width:.5"/><text x="174" y="500.544" fill="#D9B8FF" font-family="sans-serif" font-size="14" font-weight="bold" textLength="26">arn</text><text x="200" y="500.544" fill="#D9B8FF" font-family="sans-serif" font-size="14" textLength="48">: string</text><rect width="227" height="310.758" x="127" y="7" fill="#3D176E" rx="2.5" ry="2.5" style="stroke:#000d19;stroke-width:.5"/><circle cx="195.75" cy="26.895" r="11" fill="#ADD1B2" style="stroke:#181818;stroke-width:1"/><path d="M198.719 32.535q-.578.297-1.219.438-.64.156-1.344.156-2.5 0-3.828-1.64-1.312-1.657-1.312-4.782t1.312-4.781q1.328-1.656 3.828-1.656.703 0 1.344.156.656.156 1.219.453v2.719q-.625-.578-1.219-.844-.594-.281-1.219-.281-1.344 0-2.031 1.078-.687 1.062-.687 3.156t.687 3.172q.688 1.062 2.031 1.062.625 0 1.219-.265.594-.281 1.219-.86z"/><text x="221.25" y="32.78" fill="#D9B8FF" font-family="Helvetica" font-size="17" textLength="71">resource</text><path d="M128 46.789h225" style="stroke:#000d19;stroke-width:.5"/><text x="138" y="68.784" fill="#D9B8FF" font-family="sans-serif" font-size="14" font-weight="bold" textLength="29">age</text><text x="167" y="68.784" fill="#D9B8FF" font-family="sans-serif" font-size="14" textLength="66">: duration</text><text x="138" y="95.081" fill="#D9B8FF" font-family="sans-serif" font-size="14" font-weight="bold" textLength="43">atime</text><text x="181" y="95.081" fill="#D9B8FF" font-family="sans-serif" font-size="14" textLength="70">: datetime</text><text x="138" y="121.378" fill="#D9B8FF" font-family="sans-serif" font-size="14" font-weight="bold" textLength="43">ctime</text><text x="181" y="121.378" fill="#D9B8FF" font-family="sans-serif" font-size="14" textLength="70">: datetime</text><text x="138" y="147.675" fill="#D9B8FF" font-family="sans-serif" font-size="14" font-weight="bold" textLength="14">id</text><text x="152" y="147.675" fill="#D9B8FF" font-family="sans-serif" font-size="14" textLength="48">: string</text><text x="138" y="173.972" fill="#D9B8FF" font-family="sans-serif" font-size="14" font-weight="bold" textLength="33">kind</text><text x="171" y="173.972" fill="#D9B8FF" font-family="sans-serif" font-size="14" textLength="48">: string</text><text x="138" y="200.269" fill="#D9B8FF" font-family="sans-serif" font-size="14" font-weight="bold" textLength="90">last_access</text><text x="228" y="200.269" fill="#D9B8FF" font-family="sans-serif" font-size="14" textLength="66">: duration</text><text x="138" y="226.565" fill="#D9B8FF" font-family="sans-serif" font-size="14" font-weight="bold" textLength="90">last_update</text><text x="228" y="226.565" fill="#D9B8FF" font-family="sans-serif" font-size="14" textLength="66">: duration</text><text x="138" y="252.862" fill="#D9B8FF" font-family="sans-serif" font-size="14" font-weight="bold" textLength="48">mtime</text><text x="186" y="252.862" fill="#D9B8FF" font-family="sans-serif" font-size="14" textLength="70">: datetime</text><text x="138" y="279.159" fill="#D9B8FF" font-family="sans-serif" font-size="14" font-weight="bold" textLength="43">name</text><text x="181" y="279.159" fill="#D9B8FF" font-family="sans-serif" font-size="14" textLength="48">: string</text><text x="138" y="305.456" fill="#D9B8FF" font-family="sans-serif" font-size="14" font-weight="bold" textLength="34">tags</text><text x="172" y="305.456" fill="#D9B8FF" font-family="sans-serif" font-size="14" textLength="171">: dictionary[string, string]</text><path fill="none" d="M240.5 921.39v53.21" style="stroke:#ffaf37;stroke-width:2"/><path fill="#FFAF37" d="m240.5 980.6 4-9-4 4-4-4z" style="stroke:#ffaf37;stroke-width:2"/><path fill="none" d="M240.5 760.6v53.65" style="stroke:#ffaf37;stroke-width:2"/><path fill="#FFAF37" d="m240.5 820.25 4-9-4 4-4-4z" style="stroke:#ffaf37;stroke-width:2"/><path fill="none" d="M240.5 531.03V633.7m0-120.67-6 18h12zm0-176.85v102.33m0-120.33-6 18h12z" style="stroke:#ffaf37;stroke-width:2"/></svg>
